X: 41890
T: Voulez Vous Danser
R: jig
M: 6/8
K: Gmajor
|:B2 B BAB|ABA G3|F2 G A2 F|GA^A B2 G|
BcB B2B|ABA GAB|c2 B A2 G|FEF G3:|
|:A2 A ABF|G2 B A2 F|ABA A2 F|G2 B A2 F|
d2 d c2 c|B2 B A2 A|GAG FGF|EFE D3:|

